svg/color/wan.svg

<svg height="32" viewBox="0 0 32 32" width="32" xmlns="http://www.w3.org/2000/svg"><g fill="none" fill-rule="evenodd"><circle cx="16" cy="16" fill="#136aad" r="16"/><path d="m7 11.0898182 2.66666667 1.1301818v6.3534545l6.33333333-3.7876363 6.3939394 3.7876363v-6.3534545l2.6060606-1.1301818v11.9738182l-9-5.3149091-9 5.3149091zm.3030303-.4887273 8.6969697-5.1010909 8.7575758 5.1010909-2.3636364.9774546-6.3939394-3.69600005-6.33333333 3.69600005zm1.87878788 11.8210909 1.96969702-1.1301818 4.8787878 2.8254545 4.8181818-2.8254545 2.0303031 1.1301818-6.8484849 4.0778182z" fill="#fff"/></g></svg>

<svg xmlns="http://www.w3.org/2000/svg" width="32" height="32" viewBox="0 0 32 32">
  <g fill="none" fill-rule="evenodd">
    <circle cx="16" cy="16" r="16" fill="#136AAD"/>
    <path fill="#FFF" d="M7,11.0898182 L9.66666667,12.22 L9.66666667,18.5734545 L16,14.7858182 L22.3939394,18.5734545 L22.3939394,12.22 L25,11.0898182 L25,23.0636364 L16,17.7487273 L7,23.0636364 L7,11.0898182 Z M7.3030303,10.6010909 L16,5.5 L24.7575758,10.6010909 L22.3939394,11.5785455 L16,7.88254545 L9.66666667,11.5785455 L7.3030303,10.6010909 Z M9.18181818,22.4221818 L11.1515152,21.292 L16.030303,24.1174545 L20.8484848,21.292 L22.8787879,22.4221818 L16.030303,26.5 L9.18181818,22.4221818 Z"/>
  </g>
</svg>
